symbols/web/chat_bubble/materialsymbolsoutlined/chat_bubble_gradN25_40px.svg

<svg xmlns="http://www.w3.org/2000/svg" height="40" width="40"><path d="M3.625 36.25V6.208q0-1.041.771-1.833t1.854-.792h27.5q1.042 0 1.833.792.792.792.792 1.833v20.917q0 1.042-.792 1.833-.791.792-1.833.792H10.125Zm2.625-6.375L9 27.125h24.75V6.208H6.25Zm0-23.667v23.667Z"/></svg>

<svg xmlns="http://www.w3.org/2000/svg" height="40" width="40"><path d="M3.625 36.25V6.208Q3.625 5.167 4.396 4.375Q5.167 3.583 6.25 3.583H33.75Q34.792 3.583 35.583 4.375Q36.375 5.167 36.375 6.208V27.125Q36.375 28.167 35.583 28.958Q34.792 29.75 33.75 29.75H10.125ZM6.25 29.875 9 27.125H33.75Q33.75 27.125 33.75 27.125Q33.75 27.125 33.75 27.125V6.208Q33.75 6.208 33.75 6.208Q33.75 6.208 33.75 6.208H6.25Q6.25 6.208 6.25 6.208Q6.25 6.208 6.25 6.208ZM6.25 6.208Q6.25 6.208 6.25 6.208Q6.25 6.208 6.25 6.208Q6.25 6.208 6.25 6.208Q6.25 6.208 6.25 6.208V27.125Q6.25 27.125 6.25 27.125Q6.25 27.125 6.25 27.125V29.875Z"/></svg>
